X:1
T:Herr Gott, du hast mir geben
T:Joachim a Burck
T:Source : Breitkopf & Härtel---Leipzig---R.Eitner---1898. First print : 20 Deutsche Liedlein zu 4 Stimmen---Erfurt---G.Baumann---1575. Editor : André Vierendeels (03/11/17).
T:Herr Gott, du hast mir geben
T:©
T:©
T:©
C:Joachim a Burck
Z:©
%%score [ 1 [ 2 3 ] 4 ]
L:1/8
Q:1/4=80
M:4/4
K:F
V:1 treble nm="Soprano" snm="S"
V:2 treble-8 nm="Tenor 1" snm="T 1"
V:3 treble-8 nm="Tenor 2" snm="T 2"
V:4 bass nm="Bass" snm="B"
V:1
 z4 z2 D2 | D2 G2 F2 E2 | D4 G2 B2 | B2 A2 G2 ^F2 | G4 z2 D2 |"^1)" D2 G2 F2 E2 | D4 G2 B2 | %7
w: Herr|Gott, du hast mir|ge- ben Lip-|pen an mei- nem|Mund, thu|mir sie auf zu|re- den ein|
w: Zu|un- nüt- zem ge-|schwe- tze reit-|zet der bö- se|Geist, wer|sich da- mit er-|get- zet, ge-|
 B2 A2 G2 ^F2 | G4 z2 G2 | A4 B2 c2- | c2 A2 A4 | ^F2 F2 F4 | G2 A4 B2- | BA/G/ A2 B2 F2- | %14
w: Lob von Hert- zens|Grund; las|mir kein Wort|_ ent- fah-|ren, das ihr|ge- reich zum|_ _ _ _ Ar- gen|
w: den- cket nicht noch|weis, dass|man von al-|* len re-|den, die un-|nütz- lich ge-|* * * * sche- hen,|
 F2 A4 B2- | B2 G4 A2- | AG G4 F2 | G4 A2 B2- | B2 G4 A2- | AG G4 F2 | G8 |] %21
w: _ wo ich|_ bei Leu-|* * * ten|bin, wo ich|_ bei Leu-|* * * ten|bin.|
w: _ mus ge-|* ben re-|* * * chen-|schafft, mus ge-|* ben re-|* * * chen-|schafft.|
V:2
"^2)" z4 z2 B2 |"^1)" B2 d2 d2 c2 | B4 d2 g2 | f2 e2 d2 d2 | d4 z2 B2 | B2 d2 d2 c2 | B4 d2 g2 | %7
w: Herr|Gott, du hast mir|ge- ben Lip-|pen an mei- nem|Mund, thu|mir sie auf zu|re- den ein|
w: Las|al- len die ver-|stum- men, so|Un- nütz we- scher|sein, dei-|nen Na- men zu|rüh- men thu|
 f2 e2 d2 d2 | d4 z2 d2 | f4 f2 g2- | g2 f2 e4 | A4 d4- | d2 f4 f2 | f4 d2 d2- | d2 f4 f2 | %15
w: Lob von Hert- zens|Grund; las|mir kein Wort|_ ent- fah-|ren, das|_ ihr ge-|reich zum Ar-|* gen, wo|
w: auf die Lip- pen|mein, bei|al- len dei-|* nen ga-|ben die|_ wir hie|zeit- lich ha-|* ben, und|
 _e4 e4 | d6 d2 | d4 f4 | _e4 e4 | d6 d2 | d8 |] %21
w: ich bei|Leu- ten|bin, wo|ich bei|Leu- ten|bin|
w: dort in|E- wig-|ket, und|dort in|E- wig-|keit.|
V:3
"^3)" z4 z2 G2 |"^1)" G2 B2 A2 A2 | F2 D4 d2 | d2 c2 B2 A2 | G4 z2 G2 | G2 B2 A2 A2 | F2 D4 d2 | %7
w: Herr|Gott, du hast mir|ge- ben Lip-|pen an mei- nem|Mund, thu|mir sie auf zu|re- den ein|
 d2 c2 B2 A2 | G4 z2 B2 | c2 c2 d2 _e2- |"^-natural" e2 d3 c/B/ c2 | d2 A2 A4 | B2 c4 d2 | %13
w: Lob von Hert- zens|Grund; las|mir kein Wort ent-|* fah- * * *|ren, das ihr|ge- reich zum|
 c4 B3 c | d4 z2 d2 | B4 c4 | B4 A4 | G4 d4 | B2 B2 c4- | cB BA/G/ A2 A2 | G8 |] %21
w: Ar- * *|gen, wo|ich bei|Leu- ten|bin, wo|ich bei Leu-|* * * * * * ten|bin.|
V:4
 z4 z2 G,,2 |"^1)" G,,2 G,,2 D,2 A,,2 | B,,4 G,,2 G,,2 | B,,2 C,2 D,2 D,2 | G,,4 z2 G,,2 | %5
w: Herr|Gott, du hast mir|ge- ben Lip-|pen an mei- nem|Mund, thu|
 G,,2 G,,2 D,2 A,,2 | B,,4 G,,2 G,,2 | B,,2 C,2 D,2 D,2 | G,,4 z2 G,2 | F,4 D,2 C,2- | %10
w: mir sie auf zu|re- den ein|Lob von Hert- zens|Grund; las|mir kein Wort|
 C,2 D,2 A,,4 | D,2 D,2 D,4 | G,2 F,4 B,,2 | F,,4 B,,4 | z4 D,4 | _E,4 C,4 | D,4 D,4 | %17
w: _ ent- fah-|ren, das ihr|ge reich zum|Ar- gen,|wo|ich bei|Leu- ten|
 G,,4 z2 D,2 | _E,4 C,4 | D,4 D,4 | G,,8 |] %21
w: bin, wo|ich bei|Leu- ten|bin.|

